!!!!SEGMENT: pl-sa--l-1636--056_anonim--keyboard-piece.krn
!!!id: 17xx:763
!!!COM: Anonim
!!!COM-rism: pe30004985
!!!CDT:
!!!CNT:
!!!OTL: Keyboard piece
!!!PDT:
!!!SMS-siglum: PL-SA
!!!SMS-shelfmark: L 1636
!!!NIFC-rismID: 1001076833
!!!URL-scan: http://repozytorium.nifc.pl/skany/pl-sa-nut--l1636
!!!ONB-nifc: 15r, skan 0018, s. 7-8
!!!SMS-variant:
!!!SMS-altvar:
**kern	**kern
*part1	*part1
*staff2	*staff1
*I"Organo	*
*I'Org.	*
*clefF4	*clefG2
*k[b-]	*k[b-]
*M2/2	*M2/2
*met(c|)	*met(c|)
=1	=1
1G/ 1D/ 1GG/	1dd/ 1b-/ 1g/
=2	=2
*2\right	*2\right
*	*^
!	!LO:SIC:o:s:=:v:all\right	!
2G\	2dd/ 2b-/	2g\
2F\	2dd/	2a\
=3-	=3-	=3-
1E-X\	2dd/	1g\
!	!LO:N:vis=1	!
.	2cc#X/ 2b-/	.
=4	=4	=4
*^	*	*
2D/	1DD\	2dd/	2f#X\
2ryy	.	16dd\LL	2ryy
.	.	16ff\	.
.	.	16ee\	.
.	.	16ff\JJ	.
.	.	16b-\LL	.
.	.	16dd\	.
.	.	16cc\	.
.	.	16dd\JJ	.
*	*	*v	*v
=5	=5	=5
2F/	2FF/	16ff\LL
.	.	16aa\
.	.	16gg\
.	.	16aa\JJ
.	.	16dd\LL
.	.	16ff\
.	.	16ee\
.	.	16ff\JJ
2F/ 2D/	2BB-\	16r
.	.	16dd\LL
.	.	16ee\
.	.	16ff\JJ
.	.	16aa\LL
.	.	16ff\
.	.	16gg\
.	.	16dd\JJ
*v	*v	*
=6	=6
!	!LO:SIC:o:s:=:v: w całym takcie nie pasują bemole
!	!LO:TX:a:t=P:problem:mixed beam
16C/LL	4b-/
!	!LO:TX:a:t=P:problem:♭ above
16A-X\	.
16G\	.
16F\JJ	.
!	!LO:TX:a:t=P:problem:♭ above
16E-X\LL	4dd-X/
!	!LO:TX:a:t=P:problem:♭ above
16D-X\	.
16E-X\	.
16C\JJ	.
!!LO:LB:g=original
2D-/ 2DD/	16dd-\LL
.	16gg\
.	16ff\
!	!LO:TX:a:t=P:problem:♭ above
.	16ee-X\JJ
.	16dd-\LL
.	16cc\JJ
!	!LO:TX:a:t=P:problem:♭ above
!	!LO:SIC:o:s:=:v:nieczytelny zapis
!	!LO:TX:a:t=P:problem:♭ above
.	32dd-X\LLL
.	32cc\
.	32b-\
.	32a\JJJ
=7	=7
*	*^
1D/ 1DD/	4dd/ 4a/	4f#X\
.	8cc/L	4g\
.	8b-/J	.
.	2a/	8g\L
.	.	16f#\L
.	.	16e\JJ
.	.	8d\L
.	.	8c\J
*	*v	*v
=8	=8
1G/ 1D/ 1BB-/ 1GG/	1g/ 1d/ 1B-/
=||	=||
*-	*-
!!!system-decoration: {(s1,s2)}
!!!EED: Leszek Kubiak
!!!EST: 2020-12-08
!!!ENC:Anastazja Marusiak
!!!END:2020-06-11
